SVG_Azure_Grouped/Application/Application Service Console.svg

<?xml version="1.0" encoding="UTF-8" standalone="no"?>
<!-- Generated by Microsoft Visio, SVG Export Application Service Console.svg Page-1 -->

<svg
   xmlns:dc="http://purl.org/dc/elements/1.1/"
   xmlns:cc="http://creativecommons.org/ns#"
   xmlns:rdf="http://www.w3.org/1999/02/22-rdf-syntax-ns#"
   xmlns:svg="http://www.w3.org/2000/svg"
   xmlns="http://www.w3.org/2000/svg"
   xmlns:sodipodi="http://sodipodi.sourceforge.net/DTD/sodipodi-0.dtd"
   xmlns:inkscape="http://www.inkscape.org/namespaces/inkscape"
   width="0.78735948in"
   height="0.62993622in"
   viewBox="0 0 56.68979 45.355505"
   xml:space="preserve"
   class="st5"
   version="1.1"
   id="svg49"
   sodipodi:docname="Application Service Console.svg"
   style="font-size:12px;overflow:visible;color-interpolation-filters:sRGB;fill:none;fill-rule:evenodd;stroke-linecap:square;stroke-miterlimit:3"
   inkscape:version="0.92.5 (2060ec1f9f, 2020-04-08)"><metadata
   id="metadata53"><rdf:RDF><cc:Work
       rdf:about=""><dc:format>image/svg+xml</dc:format><dc:type
         rdf:resource="http://purl.org/dc/dcmitype/StillImage" /></cc:Work></rdf:RDF></metadata><sodipodi:namedview
   pagecolor="#ffffff"
   bordercolor="#666666"
   borderopacity="1"
   objecttolerance="10"
   gridtolerance="10"
   guidetolerance="10"
   inkscape:pageopacity="0"
   inkscape:pageshadow="2"
   inkscape:window-width="640"
   inkscape:window-height="480"
   id="namedview51"
   showgrid="false"
   inkscape:zoom="1.5612629"
   inkscape:cx="37.795262"
   inkscape:cy="30.225663"
   inkscape:window-x="0"
   inkscape:window-y="0"
   inkscape:window-maximized="0"
   inkscape:current-layer="svg49" />
	<style
   type="text/css"
   id="style2">
	<![CDATA[
		.st1 {fill:url(#grad0-6);stroke:none;stroke-linecap:butt;stroke-width:34}
		.st2 {fill:#0078d4;stroke:none;stroke-linecap:butt;stroke-width:34}
		.st3 {fill:#f2f2f2;stroke:none;stroke-linecap:butt;stroke-width:34}
		.st4 {fill:#e6e6e6;stroke:none;stroke-linecap:butt;stroke-width:34}
		.st5 {fill:none;fill-rule:evenodd;font-size:12px;overflow:visible;stroke-linecap:square;stroke-miterlimit:3}
	]]>
	</style>

	<defs
   id="Patterns_And_Gradients">
		<linearGradient
   id="grad0-6"
   x1="0"
   y1="104.3574"
   x2="43.474643"
   y2="104.3574"
   gradientTransform="scale(1.3039785,0.76688381)"
   gradientUnits="userSpaceOnUse">
			<stop
   offset="0"
   stop-color="#32bedd"
   stop-opacity="1"
   id="stop4" />
			<stop
   offset="0.175"
   stop-color="#32caea"
   stop-opacity="1"
   id="stop6" />
			<stop
   offset="0.41"
   stop-color="#32d2f2"
   stop-opacity="1"
   id="stop8" />
			<stop
   offset="0.775"
   stop-color="#32d4f5"
   stop-opacity="1"
   id="stop10" />
		</linearGradient>
	</defs>
	<g
   id="g47"
   transform="translate(-34.000229,-33.998791)">
		<title
   id="title14">Page-1</title>
		<g
   id="group14458-1"
   transform="translate(34,-34.0157)">
			<title
   id="title16">Application Service Console.14458</title>
			<g
   id="group14459-2">
				<title
   id="title18">MsPortalFx.base.images-38</title>
				<g
   id="shape14460-3">
					<title
   id="title20">Sheet.14460</title>
					<path
   d="m 0,80.03 h 56.69 v 31.46 a 1.89421,1.88479 0 0 1 -1.89,1.88 H 1.89 A 1.89421,1.88479 0 0 1 0,111.49 Z"
   class="st1"
   id="path22"
   inkscape:connector-curvature="0"
   style="fill:url(#grad0-6);stroke:none;stroke-width:34;stroke-linecap:butt" />
				</g>
				<g
   id="shape14461-7"
   transform="translate(0,-33.3355)">
					<title
   id="title25">Sheet.14461</title>
					<path
   d="m 1.9,101.35 h 52.89 a 1.89421,1.88479 0 0 1 1.89,1.89 v 10.13 H 0 v -10.13 a 1.89421,1.88479 0 0 1 1.9,-1.89 z"
   class="st2"
   id="path27"
   inkscape:connector-curvature="0"
   style="fill:#0078d4;stroke:none;stroke-width:34;stroke-linecap:butt" />
				</g>
				<g
   id="shape14462-9"
   transform="translate(7.59075,-15.4566)">
					<title
   id="title30">Sheet.14462</title>
					<path
   d="m 0.16,102.76 1.23,-1.23 a 0.556925,0.554154 0 0 1 0.787031,-0.003 L 11.29,110.57 a 1.11718,1.11163 0 0 1 0,1.57 l -1.23,1.23 -9.89,-9.82 a 0.556925,0.554154 0 0 1 -0.003335,-0.78643 z"
   class="st3"
   id="path32"
   inkscape:connector-curvature="0"
   style="fill:#f2f2f2;stroke:none;stroke-width:34;stroke-linecap:butt" />
				</g>
				<g
   id="shape14463-11"
   transform="translate(7.77084,-7.57117)">
					<title
   id="title35">Sheet.14463</title>
					<path
   d="m 1.4,113.21 -1.24,-1.23 a 0.556925,0.554154 0 0 1 0,-0.78311 l 9.73,-9.70689 1.23,1.22 a 1.11718,1.11163 0 0 1 0,1.58 l -8.95,8.93 a 0.556925,0.554154 0 0 1 -0.777026,-0.007 z"
   class="st4"
   id="path37"
   inkscape:connector-curvature="0"
   style="fill:#e6e6e6;stroke:none;stroke-width:34;stroke-linecap:butt" />
				</g>
				<g
   id="shape14464-13"
   transform="translate(22.4137,-7.24382)">
					<title
   id="title40">Sheet.14464</title>
					<path
   d="m 0,112.4 a 0.970472,0.965644 -180 0 0 0.970449,0.96562 L 14.94,113.37 a 0.970472,0.965644 -180 0 0 0.970449,-0.96562 L 15.91,110.98 a 0.970472,0.965644 -180 0 0 -0.970449,-0.96562 L 0.97,110.02 a 0.970472,0.965644 -180 0 0 -0.970449,0.96562 z"
   class="st3"
   id="path42"
   inkscape:connector-curvature="0"
   style="fill:#f2f2f2;stroke:none;stroke-width:34;stroke-linecap:butt" />
				</g>
			</g>
		</g>
	</g>
</svg>

<?xml version="1.0" encoding="UTF-8" standalone="no"?>
<!DOCTYPE svg PUBLIC "-//W3C//DTD SVG 1.1//EN" "http://www.w3.org/Graphics/SVG/1.1/DTD/svg11.dtd">
<!-- Generated by Microsoft Visio, SVG Export Application Service Console.svg Page-1 -->
<svg xmlns="http://www.w3.org/2000/svg" xmlns:xlink="http://www.w3.org/1999/xlink" xmlns:ev="http://www.w3.org/2001/xml-events"
		width="1.73185in" height="1.57458in" viewBox="0 0 124.693 113.37" xml:space="preserve" color-interpolation-filters="sRGB"
		class="st5">
	<style type="text/css">
	<![CDATA[
		.st1 {fill:url(#grad0-6);stroke:none;stroke-linecap:butt;stroke-width:34}
		.st2 {fill:#0078d4;stroke:none;stroke-linecap:butt;stroke-width:34}
		.st3 {fill:#f2f2f2;stroke:none;stroke-linecap:butt;stroke-width:34}
		.st4 {fill:#e6e6e6;stroke:none;stroke-linecap:butt;stroke-width:34}
		.st5 {fill:none;fill-rule:evenodd;font-size:12px;overflow:visible;stroke-linecap:square;stroke-miterlimit:3}
	]]>
	</style>

	<defs id="Patterns_And_Gradients">
		<linearGradient id="grad0-6" x1="0" y1="0" x2="1" y2="0" gradientTransform="rotate(-90 0.5 0.5)">
			<stop offset="0" stop-color="#32bedd" stop-opacity="1"/>
			<stop offset="0.175" stop-color="#32caea" stop-opacity="1"/>
			<stop offset="0.41" stop-color="#32d2f2" stop-opacity="1"/>
			<stop offset="0.775" stop-color="#32d4f5" stop-opacity="1"/>
		</linearGradient>
	</defs>
	<g>
		<title>Page-1</title>
		<g id="group14111-1" transform="translate(34,-34.0157)">
			<title>Application Service Console.14111</title>
			<g id="group14112-2">
				<title>MsPortalFx.base.images-38</title>
				<g id="shape14113-3">
					<title>Sheet.14113</title>
					<path d="M0 80.03 L56.69 80.03 L56.69 111.49 A1.89421 1.88479 0 0 1 54.8 113.37 L1.89 113.37 A1.89421 1.88479
								 0 0 1 0 111.49 L0 80.03 Z" class="st1"/>
				</g>
				<g id="shape14114-7" transform="translate(0,-33.3355)">
					<title>Sheet.14114</title>
					<path d="M1.9 101.35 L54.79 101.35 A1.89421 1.88479 0 0 1 56.68 103.24 L56.68 113.37 L0 113.37 L0 103.24 A1.89421
								 1.88479 0 0 1 1.9 101.35 Z" class="st2"/>
				</g>
				<g id="shape14115-9" transform="translate(7.59075,-15.4566)">
					<title>Sheet.14115</title>
					<path d="M0.16 102.76 L1.39 101.53 a0.556925 0.554154 0 0 1 0.787031 -0.00331829 L11.29 110.57 A1.11718 1.11163
								 0 0 1 11.29 112.14 L10.06 113.37 L0.17 103.55 a0.556925 0.554154 0 0 1 -0.00333488 -0.786434 Z"
							class="st3"/>
				</g>
				<g id="shape14116-11" transform="translate(7.77084,-7.57117)">
					<title>Sheet.14116</title>
					<path d="M1.4 113.21 L0.16 111.98 a0.556925 0.554154 0 0 1 -4.94049E-15 -0.783115 L9.89 101.49 L11.12 102.71
								 A1.11718 1.11163 0 0 1 11.12 104.29 L2.17 113.22 a0.556925 0.554154 0 0 1 -0.777026 -0.00663657
								 Z" class="st4"/>
				</g>
				<g id="shape14117-13" transform="translate(22.4137,-7.24382)">
					<title>Sheet.14117</title>
					<path d="M0 112.4 a0.970472 0.965644 -180 0 0 0.970449 0.965621 L14.94 113.37 a0.970472 0.965644 -180 0 0 0.970449
								 -0.965621 L15.91 110.98 a0.970472 0.965644 -180 0 0 -0.970449 -0.965621 L0.97 110.02 a0.970472 0.965644
								 -180 0 0 -0.970449 0.965621 L0 112.4 Z" class="st3"/>
				</g>
			</g>
		</g>
	</g>
</svg>
